X:1
T:Fly me litta vann
C:Torgny Hansson
R:Låt
O:Laholm, Halland
M:4/4
L:1/8
K:Gm
|: dAcA Bz G2 | ^FGAF Ez D2 | dAcA Bz G2 | (^FG)AF G2 z2 :|
(^FG)AF (E2D2) | (^F2G)z (E2D2) | (^F2G)z (E2D2) | (^FG)AF G2z2 |
(^FG)AF (E2D2) | (^c2d)z (E2D2) | (^c2d)z (E2D2) | (^FG)AF G2z2 |] 
[K:G]|:dedB cAFA | cAFA GD B,2 | B,DGB dBGB | cAFA G2 z2 :|

